berloni/img/purchase/purchase-1.svg

<svg width="60" height="60" viewBox="0 0 60 60" fill="none" xmlns="http://www.w3.org/2000/svg">
<path d="M0 24.375C0 27.865 2.39508 30.7727 5.625 31.6113V56.25H1.875C0.842227 56.25 0 57.0886 0 58.125C0 59.1614 0.842344 60 1.875 60H58.125C59.165 60 60 59.1614 60 58.125C60 57.0886 59.165 56.25 58.125 56.25H54.375V31.6113C57.6049 30.7727 60 27.865 60 24.375V22.5H0V24.375ZM37.5 31.875C41.6455 31.875 45 28.5169 45 24.375C45 27.865 47.3951 30.7727 50.625 31.6113V56.25H22.5V31.875C26.6455 31.875 30 28.5169 30 24.375C30 28.5169 33.3619 31.875 37.5 31.875ZM20.625 31.6113V56.25H9.375V31.6113C12.605 30.7727 15 27.865 15 24.375C15 27.865 17.3951 30.7727 20.625 31.6113ZM52.5 5.625H7.5L0 20.625H60L52.5 5.625ZM15.8423 9.79254L12.0923 17.2925C11.9238 17.6222 11.5943 17.8126 11.25 17.8126C11.1108 17.8126 10.968 17.7833 10.8325 17.7137C10.371 17.483 10.1805 16.9191 10.4149 16.4576L14.1649 8.95758C14.3993 8.49609 14.9596 8.30941 15.4211 8.53641C15.8863 8.76715 16.0693 9.33106 15.8423 9.79254ZM23.3423 9.79254L19.5923 17.2925C19.4238 17.6222 19.0943 17.8126 18.75 17.8126C18.6108 17.8126 18.468 17.7833 18.3325 17.7137C17.871 17.483 17.6805 16.9191 17.9149 16.4576L21.6649 8.95758C21.8993 8.49609 22.4633 8.30941 22.9211 8.53641C23.3863 8.76715 23.5693 9.33106 23.3423 9.79254ZM30.9375 16.875C30.9375 17.3951 30.5201 17.8125 30 17.8125C29.4837 17.8125 29.0625 17.395 29.0625 16.875V9.375C29.0625 8.85492 29.4837 8.4375 30 8.4375C30.5201 8.4375 30.9375 8.85504 30.9375 9.375V16.875ZM41.7041 17.6953C41.5576 17.7759 41.4039 17.8125 41.25 17.8125C40.9205 17.8125 40.5982 17.6367 40.4297 17.3255L36.3281 9.82547C36.0791 9.37137 36.2475 8.80008 36.7017 8.55469C37.1486 8.30566 37.7271 8.4668 37.9761 8.92453L42.0777 16.4245C42.3193 16.8786 42.1582 17.4499 41.7041 17.6953ZM49.1674 17.7136C49.0357 17.7832 48.8965 17.8125 48.75 17.8125C48.4057 17.8125 48.0762 17.6221 47.915 17.2924L44.165 9.79242C43.9307 9.33094 44.1211 8.76703 44.5825 8.53629C45.0366 8.30555 45.6079 8.49234 45.8422 8.95746L49.5922 16.4575C49.8193 16.9189 49.6362 17.483 49.1674 17.7136ZM15.9375 45.2857V40.9644C15.3881 40.6349 15 40.0635 15 39.3751C15 38.3387 15.8423 37.5001 16.875 37.5001C17.915 37.5001 18.75 38.3387 18.75 39.3751C18.75 40.0636 18.3655 40.6349 17.8125 40.9644V45.2857C18.3655 45.6153 18.75 46.1866 18.75 46.8751C18.75 47.9115 17.915 48.7501 16.875 48.7501C15.8422 48.7501 15 47.9115 15 46.8751C15 46.1865 15.3882 45.6152 15.9375 45.2857ZM7.5 1.875C7.5 0.838594 8.34234 0 9.375 0H50.625C51.665 0 52.5 0.838594 52.5 1.875C52.5 2.91141 51.665 3.75 50.625 3.75H9.375C8.34234 3.75 7.5 2.91141 7.5 1.875ZM32.8638 41.9128L31.5382 40.5871L36.8409 35.2843L38.1666 36.6101L32.8638 41.9128ZM32.8638 47.2155L31.5382 45.8898L42.1437 35.2843L43.4693 36.6101L32.8638 47.2155ZM42.1436 40.5872L43.4692 41.9129L38.1664 47.2157L36.8408 45.8899L42.1436 40.5872Z" fill="#5D5D5D"/>
<path d="M15.9375 45.2858V40.9645C15.3881 40.635 15 40.0636 15 39.3752C15 38.3388 15.8423 37.5002 16.875 37.5002C17.915 37.5002 18.75 38.3388 18.75 39.3752C18.75 40.0637 18.3655 40.635 17.8125 40.9645V45.2858C18.3655 45.6154 18.75 46.1867 18.75 46.8752C18.75 47.9116 17.915 48.7502 16.875 48.7502C15.8422 48.7502 15 47.9116 15 46.8752C15 46.1866 15.3882 45.6153 15.9375 45.2858ZM32.8638 41.9129L31.5382 40.5872L36.8409 35.2844L38.1666 36.6102L32.8638 41.9129ZM32.8638 47.2156L31.5382 45.8899L42.1437 35.2844L43.4693 36.6102L32.8638 47.2156ZM42.1436 40.5873L43.4692 41.913L38.1664 47.2158L36.8408 45.89L42.1436 40.5873Z" fill="#EE3425"/>
</svg>

<svg width="60" height="60" fill="none" xmlns="http://www.w3.org/2000/svg"><path d="M0 24.375c0 3.49 2.395 6.398 5.625 7.236V56.25h-3.75a1.876 1.876 0 0 0 0 3.75h56.25c1.04 0 1.875-.839 1.875-1.875a1.872 1.872 0 0 0-1.875-1.875h-3.75V31.611c3.23-.838 5.625-3.746 5.625-7.236V22.5H0v1.875zm37.5 7.5c4.145 0 7.5-3.358 7.5-7.5 0 3.49 2.395 6.398 5.625 7.236V56.25H22.5V31.875c4.145 0 7.5-3.358 7.5-7.5 0 4.142 3.362 7.5 7.5 7.5zm-16.875-.264V56.25H9.375V31.611c3.23-.838 5.625-3.746 5.625-7.236 0 3.49 2.395 6.398 5.625 7.236zM52.5 5.625h-45l-7.5 15h60l-7.5-15zM15.842 9.793l-3.75 7.5a.946.946 0 0 1-.842.52.934.934 0 0 1-.835-1.355l3.75-7.5a.943.943 0 0 1 1.256-.422c.465.231.648.795.421 1.257zm7.5 0l-3.75 7.5a.946.946 0 0 1-.842.52.934.934 0 0 1-.835-1.355l3.75-7.5a.944.944 0 0 1 1.256-.422c.465.231.648.795.421 1.257zm7.596 7.082a.937.937 0 1 1-1.875 0v-7.5a.937.937 0 1 1 1.875 0v7.5zm10.766.82a.932.932 0 0 1-1.274-.37l-4.102-7.5a.935.935 0 0 1 .374-1.27.937.937 0 0 1 1.274.37l4.102 7.5a.941.941 0 0 1-.374 1.27zm7.463.019a.876.876 0 0 1-.417.099.927.927 0 0 1-.835-.52l-3.75-7.5a.934.934 0 0 1 .418-1.257.943.943 0 0 1 1.26.421l3.75 7.5a.937.937 0 0 1-.426 1.257zm-33.23 27.572v-4.322c-.549-.33-.937-.9-.937-1.589 0-1.036.842-1.875 1.875-1.875 1.04 0 1.875.839 1.875 1.875 0 .689-.384 1.26-.938 1.59v4.32c.553.33.938.902.938 1.59a1.876 1.876 0 0 1-3.75 0c0-.688.388-1.26.938-1.59zM7.5 1.875C7.5.839 8.342 0 9.375 0h41.25c1.04 0 1.875.839 1.875 1.875a1.872 1.872 0 0 1-1.875 1.875H9.375A1.876 1.876 0 0 1 7.5 1.875zm25.364 40.038l-1.326-1.326 5.303-5.303 1.326 1.326-5.303 5.303zm0 5.303l-1.326-1.326 10.606-10.606 1.325 1.326-10.605 10.605zm9.28-6.629l1.325 1.326-5.303 5.303-1.325-1.326 5.303-5.303z" fill="#5D5D5D"/><path d="M15.938 45.286v-4.322c-.55-.329-.938-.9-.938-1.589 0-1.036.842-1.875 1.875-1.875 1.04 0 1.875.839 1.875 1.875 0 .689-.384 1.26-.938 1.59v4.32c.553.33.938.902.938 1.59a1.876 1.876 0 0 1-3.75 0c0-.688.388-1.26.938-1.59zm16.926-3.373l-1.326-1.326 5.303-5.303 1.326 1.326-5.303 5.303zm0 5.303l-1.326-1.326 10.606-10.606 1.325 1.326-10.605 10.606zm9.28-6.629l1.325 1.326-5.303 5.303-1.325-1.326 5.303-5.303z" fill="#EE3425"/></svg>
